X: 0722
T: JUMBO JUM
B: Oliver Ditson "The Boston Collection of Instrumental Music" 1910 p.72 #2
F: http://conquest.imslp.info/files/imglnks/usimg/8/8f/IMSLP175643-PMLP309456-bostoncollection00bost_bw.pdf
M: 4/4
L: 1/8
K: C
ef |\
g>ag>e f2e>f | g>ag>f d2e>f |\
g>ag>e f2d>B | c>ed>B G2e>f |\
g>ag>e f2e>f | g>ag>e d2e>f |
g>ag>e f2d>B | c>ed>B G2G2 |\
c2e>d c2A2 | d8 |\
c2e>d c2G2 | c8 |\
c2e>d c2A2 | d8 |\
c2e>d c2G2 | c4 z2 |]

%%sep 1 1 500
%%sep 1 1 500
